src/assets/icons/svg/warning.svg

<svg width="24" height="24" viewBox="0 0 24 24" fill="none" xmlns="http://www.w3.org/2000/svg">
<g clip-path="url(#clip0)">
<path d="M23.727 17.1364C23.5351 16.6556 22.9897 16.4213 22.5089 16.6133C22.028 16.8052 21.7938 17.3506 21.9857 17.8314C22.2298 18.4428 22.1498 19.1409 21.7717 19.6989C21.3934 20.2572 20.7877 20.5774 20.11 20.5774H3.89384C3.15457 20.5774 2.49808 20.1916 2.13766 19.5454C1.77668 18.8981 1.79365 18.1353 2.18304 17.5048L10.2911 4.3773C10.6603 3.77954 11.2998 3.42268 12.0019 3.42268C12.704 3.42268 13.3435 3.77954 13.7127 4.3773L19.7093 14.0863C19.9814 14.5267 20.5591 14.6634 20.9994 14.3912C21.4399 14.1192 21.5765 13.5415 21.3044 13.101L15.3077 3.39207C14.5945 2.23726 13.3587 1.54782 12.0019 1.54782C10.6451 1.54782 9.40926 2.23731 8.696 3.39207L0.587924 16.5196C-0.163764 17.7368 -0.196483 19.2093 0.500315 20.4587C1.19655 21.707 2.46513 22.4522 3.89384 22.4522H20.11C21.4196 22.4522 22.591 21.8319 23.3238 20.7505C24.0511 19.6771 24.2018 18.3261 23.727 17.1364Z" fill="black"/>
<path d="M12.0023 18.7494C12.5201 18.7494 12.9398 18.3297 12.9398 17.812C12.9398 17.2943 12.5201 16.8746 12.0023 16.8746H12.0019C11.4841 16.8746 11.0647 17.2943 11.0647 17.812C11.0647 18.3297 11.4846 18.7494 12.0023 18.7494Z" fill="black"/>
<path d="M12.9394 14.531V7.64102C12.9394 7.12329 12.5197 6.70361 12.002 6.70361C11.4843 6.70361 11.0646 7.12329 11.0646 7.64102V14.531C11.0646 15.0488 11.4843 15.4684 12.002 15.4684C12.5197 15.4684 12.9394 15.0488 12.9394 14.531Z" fill="black"/>
</g>
<defs>
<clipPath id="clip0">
<rect width="24" height="24" fill="white"/>
</clipPath>
</defs>
</svg>

<?xml version="1.0" encoding="iso-8859-1"?>
<!-- Generator: Adobe Illustrator 23.1.0, SVG Export Plug-In . SVG Version: 6.00 Build 0)  -->
<svg version="1.1" id="&#x421;&#x43B;&#x43E;&#x439;_1"
	 xmlns="http://www.w3.org/2000/svg" xmlns:xlink="http://www.w3.org/1999/xlink" x="0px" y="0px" viewBox="0 0 24 24"
	 style="enable-background:new 0 0 24 24;" xml:space="preserve">
<g>
	<defs>
		<rect id="SVGID_1_" width="24" height="24"/>
	</defs>
	<clipPath id="SVGID_2_">
		<use xlink:href="#SVGID_1_"  style="overflow:visible;"/>
	</clipPath>
	<g style="clip-path:url(#SVGID_2_);">
		<path d="M23.727,17.136c-0.192-0.481-0.737-0.715-1.218-0.523c-0.481,0.192-0.715,0.737-0.523,1.218
			c0.244,0.611,0.164,1.309-0.214,1.868c-0.378,0.558-0.984,0.878-1.662,0.878H3.894c-0.739,0-1.396-0.386-1.756-1.032
			c-0.361-0.647-0.344-1.41,0.045-2.041l8.108-13.128C10.66,3.78,11.3,3.423,12.002,3.423c0.702,0,1.342,0.357,1.711,0.955
			l5.997,9.709c0.272,0.44,0.85,0.577,1.29,0.305c0.441-0.272,0.577-0.85,0.305-1.29l-5.997-9.709
			c-0.713-1.155-1.949-1.844-3.306-1.844S9.409,2.237,8.696,3.392L0.588,16.52c-0.752,1.217-0.784,2.69-0.088,3.939
			c0.696,1.248,1.965,1.993,3.394,1.993H20.11c1.31,0,2.481-0.62,3.214-1.702C24.051,19.677,24.202,18.326,23.727,17.136z"/>
		<path d="M12.002,18.749c0.518,0,0.938-0.42,0.938-0.937s-0.42-0.937-0.938-0.937h0c-0.518,0-0.937,0.42-0.937,0.937
			S11.485,18.749,12.002,18.749z"/>
		<path d="M12.939,14.531v-6.89c0-0.518-0.42-0.937-0.937-0.937s-0.937,0.42-0.937,0.937v6.89c0,0.518,0.42,0.937,0.937,0.937
			S12.939,15.049,12.939,14.531z"/>
	</g>
</g>
</svg>
